!!!OTL: Lullaby
!!!ARE: Japan
!!!AMD: Pentatonic
**kern
=1-
*clefG2
*k[f#]
*M3/4
*MM64
{4.d/
8e/
4d/
=2
4.g/
8a/
4g/
=3
4b/
4a/
4g/
=4
*k[]
(4.d/
8e/
4d/)}
=5
{4.g/
8a/
8g/L
8a/J
=6
8b/L
8a/J
(8g/L
8e/J)
(8d/L
8e/J)
=7
*k[f#]
(4.g/
8a/)
4g/
=8
2.g/}
=9
{4dd\
4dd\
4dd\
=10
4dd\
4b\
4a/
=11
4g/
(8a/L
8b/J)
(8a/L
8g/J)
=12
(4.d/
8e/
4d/)
=13
(4.g/
8a/)
8g/L
8a/J
=14
(8b/L
8a/J)
8g/L
8e/J
8d/L
8e/J
=15
4.g/
8a/
4g/
=16
2g/}
==
*-
